X:1
T:"Gulliver Suite"
T:Geo. Ph. Telemann
T:Intrada mit 2 Violinen, Ohne Bass
%%score [ ( 1 2 ) ( 3 4 ) ]
L:1/8
Q:1/4=120
M:4/4
K:D
V:1 treble nm="Violine 1"
V:2 treble 
V:3 treble nm="Violine 2"
V:4 treble 
V:1
"^Spirituoso"!f! !>!D2 D>D D2 z (D/4E/4F/4^G/4) | !>!A2 A>A A2 z (A/4B/4c/4A/4) | %2
 !>!f/A/!>!g/A/ !>!a/A/"^simile"e/A/ f/A/g/A/ a/A/e/A/ | f/A/g/A/ a/A/e/A/ f/A/e/A/ f/A/^g/A/ | %4
 a/A/A/A/ d/A/A/A/ e/A/A/A/ c/A/A/A/ | e/A/A/A/ c/A/A/A/ a2 z2 | !>!D2 D>D D2 z (D/4E/4F/4^G/4) | %7
 !>!A2 A>A A2 z (A/4B/4c/4A/4) | f g2 f/e/ f e2{/f} g | f g2 f/e/ f/g/a/f/ d/e/f/d/ | %10
 A B2 A/G/ A F2 G | A B2 A/G/ A/D/E/F/ G/A/B/c/ | d2 z2 z/ F/G/A/ B/c/d/e/ | %13
 f/D/E/F/ G/A/B/c/ d/F/G/A/ B/c/d/e/ | fg/a/ gf e2 f2 | e2 f2 g2 e2 | fefe f/f/e/e/ f/f/e/e/ | %17
 fg/a/ gf e2 z A | B2 e2 A2 d2- | d2 Tc2 dAFA | D2 z2 z CB,A, | %21
 E/F/^G/A/ B/c/d/B/ c/A/B/c/ d/=c/B/A/ | BB,A,G, D/E/F/G/ A/B/=c/A/ | %23
 B/g/f/g/ a/f/e/f/ g/B/A/B/ =c/A/G/A/ | BGdD .G.g.E.e | .F.f.D.d .E.e.^B,.^B | %26
 d/A/e/A/ f/A/c/A/ d/A/e/A/ f/A/c/A/ | d/A/e/A/ f/A/c/A/ dcde | A2 z/ A/A/A/ c/A/A/A/ e/A/A/A/ | %29
 c/A/A/A/ e/A/A/A/ c2 z e | f>g Te>d d/D/E/F/ G/A/B/c/ | d2 z2 z/ F/G/A/ B/c/d/e/ | %32
 f/D/E/F/ G/A/B/c/ d/F/G/A/ B/c/d/e/ | f/d/c/d/ e/c/B/c/ d/f/e/f/ g/e/d/e/ | %34
 f/a/g/a/ b/g/f/g/ aA z g | f>e Te>d dA/A/ A/A/A/A/ | AF/F/ F/F/F/F/ F2 z2 |] %37
[M:3/32][Q:1/4=20]"^Lilliputsche Chaconne" .f3/16 .g/16 .a3/16 .f/16 .g3/16 .e/16 | %38
 .f3/16 .d/16 .e3/16 .c/16 .d3/16 .A/16 | .d/8 z/8 .f/8 z/8 .e/8 z/8 | .d/8 z/8 .G/8 z/8 .F/8 z/8 | %41
 .A/8 .d/4 .c/4 d/16c/16 | .B/8 .e/4 d/16c/16 d/16e/16f/16^g/16 | %43
 a/16g/16f/16g/16 a/8 z/8 .A/8 z/8 | g/16f/16e/16f/16 g/8d/8f/8d/8 | %45
 c/16e/16e/16e/16 c/16e/16e/16e/16 c/16e/16e/16e/16 | %46
 c/16e/16e/16e/16 c/16e/16e/16e/16 c/16e/16e/16e/16 | A/8A,/8 E/8A,/8 ^G/8E/8 | %48
 A/8A,/8 E/8A,/8 ^G/8E/8 | c/16c/16c/16c/16 d/16d/16d/16d/16 e/16e/16e/16e/16 | %50
 f/16f/16f/16f/16 g/16g/16g/16g/16 a/16a/16a/16a/16 | %51
 A/16A/16A/16A/16 B/16B/16B/16B/16 c/16c/16c/16c/16 | %52
 d/16d/16d/16d/16 e/16e/16e/16e/16 f/16f/16f/16f/16 | %53
 e/16e/16e/16e/16 e/16e/16e/16e/16 e/16e/16e/16e/16 | e/16e/16e/16e/16 e/16e/16e/16e/16 d/8F/8 | %55
 A/16A/16A/16A/16 G/16G/16G/16G/16 ^G/16G/16G/16G/16 | A/16A/16A/16A/16 G/16G/16G/16G/16 F/4 |]: %57
[M:24/1][Q:1/4=999]"^Brobdingnagische Gique" !>!A8 | %58
 (!>!d8 e8) c8 (!>!d8 e8) c8 (!>!d8 f8) A8 !>!D8 d8 e8 (!>!f8 g8) e8 (!>!f8 g8) e8 (!>!f8 a8) e8 !>!f16 g8 | %59
"^simile" a16 d8 g16 c8 f8 d8 B8 e8 A8 B8 c8 A8 c8 B8 ^G8 B8 A8 F8 A8 G16 A8 | %60
 B8 d8 c8 d8 f8 e8 f8 a8 ^g8 a24 e8 d8 c8 d8 c8 B8 A8 E8 C8 E8 C8 A,8 | %61
 ^G8 E8 G8 A8 E8 A8 B16 E8 c24 G8 E8 G8 A8 E8 A8 B16 E8 c24 | %62
 ^d8 f8 e8 d8 c8 B8 e24 =d24 c8 B8 A8 B8 A8 ^G8 A24- A16 :: z8 | %64
 z8 z8 z8 z8 z8 z8 z8 z8 z8 z8 z8 a8 f8 g8 a8 e8 f8 g8 f8 g8 a8 d8 e8 f8 | %65
 g24 f24 g24 z8 z8 =c8 B8 A8 G8 D8 d8 c8 B8 A8 G8 G,16 F8 | %66
 G24 E8 C8 A,8 B24 c8 A8 c8 d8 f8 a8 c8 e8 a8 d8 f8 a8 A8 d8 f8 | %67
 e16 A8 f24 c8 A8 c8 d8 A8 d8 e16 A8 f24 c8 A8 c8 d8 A8 d8 | %68
 e24 d24 c8 e8 d8 c8 B8 A8 d16 F8 G16 A8 D24- D16 :: %69
[M:2/2]!p![Q:1/4=55]"^Reverie der Liliputaner, nebst ihren Aufweckern" (F/>G/)!breath!F F/>G/!breath!F!f! (a/4f/4e/4f/4) (a/4f/4e/4f/4) (a/4f/4e/4f/4) !wedge!a | %70
!p! G/>A/!breath!G G/>A/!breath!G!f! g/4e/4d/4e/4 g/4e/4d/4e/4 g/4e/4d/4e/4 !wedge!g | %71
!p! F/>G/!breath!A E/>F/!breath!G DA, CA, | %72
 !wedge!a/D/D/D/ !wedge!f/B,/B,/B,/ !wedge!g/E/E/E/ !wedge!e/C/C/C/ | %73
 f F/G/4A/4 GF E/A,/F/A,/ G/A,/E/A,/ | F/A,/D/A,/ G/E/F/D/ [A,E]2 z2 :: %75
 e/4c/4B/4c/4 e/4c/4B/4c/4 e/4c/4B/4c/4 e z!p! FGF | %76
!f! b/4g/4f/4g/4 b/4g/4f/4g/4 b/4g/4f/4g/4 b z!p! BAG | F/f/D G/g/E A/a/F D/d/F | %78
 !wedge!b/G/G/G/ !wedge!e/C/C/C/ !wedge!a/F/F/F/ !wedge!d/B,/B,/B,/ | %79
 !wedge!g E/F/4G/4 F"^pizz"!plus!E"^arco" DF GE | F/D/A/D/ B/D/c/D/ [Dd]2 z2 :: %81
[M:6/4][Q:1/4=176]"^Furie der unartigen Yahoos"[Q:1/4=176]"^Loure der gesitteten Houyhnhnms" A2 | %82
 d3 e d2 d3 e f2 | e2 a2 A2 A3 B c2 | d3 c B2 A3 G F2 | B2 A2 G2 F4 :: f2 | e3 a d2 c3 a B2 | %88
 A2 e2 f2 ^G3 ABc | d3 c B2 c3 e d2 | c2 d2 B2 A4 e2 | a3 A =c2 B3 def | g3 a f2 e3 fga | %93
 b3 a g2 f3 a g2 | f2 g2 e2 d4 :| %95
V:2
 x8 | x8 | x8 | x8 | x8 | x8 | x8 | x8 | x8 | x8 | x8 | x8 | x8 | x8 | x4 cAdA | cAdA eAcA | %16
 dAdA d/d/c/c/ d/d/c/c/ | d2 x2 c2 x2 | x8 | x2 x/4 x/4 x/4 x/4 x x4 | x8 | x8 | x8 | x8 | x8 | %25
 x8 | x8 | x8 | x8 | x8 | x8 | x8 | x8 | x8 | x8 | x4 z F/F/ F/F/F/F/ | FD/D/ D/D/D/D/ D2 z2 |] %37
[M:3/32] x3/4 | x3/4 | x3/4 | x3/4 | x3/4 | x3/4 | x3/4 | x3/4 | x3/4 | x3/4 | x3/4 | x3/4 | x3/4 | %50
 x3/4 | x3/4 | x3/4 | B/16B/16B/16B/16 c/16c/16c/16c/16 d/16d/16d/16d/16 | %54
 d/16d/16d/16d/16 c/16c/16c/16c/16 x/4 | %55
 G,/16G,/16G,/16G,/16 A,/16A,/16A,/16A,/16 B,/16B,/16B,/16B,/16 | %56
 G,/16G,/16G,/16G,/16 A,/16A,/16A,/16A,/16 D/4 |]:[M:24/1] x8 | x192 | x192 | x192 | x192 | x184 :: %63
 x8 | x192 | x192 | x192 | x192 | x184 ::[M:2/2] x8 | x8 | x8 | x8 | x8 | x8 :: x8 | x8 | x8 | x8 | %79
 x8 | x8 ::[M:6/4] x2 | x12 | x12 | x12 | x10 :: x2 | x12 | x12 | x12 | x12 | x12 | x12 | x12 | %94
 x10 :| %95
V:3
!f! !>!D2 D>D D2 z (D/4E/4F/4^G/4) | !>!A2 A>A A2 z (A/4B/4c/4A/4) | %2
 !>!d/A/!>!e/A/ !>!f/A/"^simile"c/A/ d/A/e/A/ f/A/c/A/ | d/A/e/A/ f/A/c/A/ dcde | %4
 A2 z/ A/A/A/ c/A/A/A/ e/A/A/A/ | c/A/A/A/ e/A/A/A/ c2 z2 | !>!D2 D>D D2 z (D/4E/4F/4^G/4) | %7
 !>!A2 A>A A2 z (A/4B/4c/4A/4) | ddBB AAcc | ddBB AA AA | d2 d2 d2 d2 | d2 d2 d2 z2 | %12
 z/ D/E/F/ G/A/B/c/ d2 z2 | z/ F/G/A/ B/c/d/e/ f/D/E/F/ G/A/B/c/ | de/f/ ed A2 D2 | A2 D2 C2 A2 | %16
 DCDC D/D/A/A/ F/F/A/A/ | de/f/ ed A2 z2 | z4 z FED | A/B/c/d/ e/f/g/e/ f/A/B/c/ de | %20
 f2 b2 e2 a2- | a2 T^g2 a2 z/ f/=g/a/ | d2 g4 Tf2 | g/B/A/B/ =c/A/G/A/ B/g/f/g/ a/f/e/f/ | %24
 g>a Tf>g .g.b.G.g | .A.a.F.f .G.g.E.e | f/A/g/A/ a/A/e/A/ f/A/g/A/ a/A/e/A/ | %27
 f/A/c/A/ d/A/e/A/ f/A/e/A/ f/A/^g/A/ | a/A/A/A/ c/A/A/A/ e/A/A/A/ c/A/A/A/ | %29
 e/A/A/A/ c/A/A/A/ a2 z c | dGAA, D2 z2 | z/ D/E/F/ G/A/B/c/ d2 z2 | %32
 z/ F/G/A/ B/c/d/e/ f/D/E/F/ G/A/B/c/ | d/F/E/F/ G/E/D/E/ F/d/c/d/ e/c/B/c/ | %34
 d/f/e/f/ g/e/d/e/ fF z e | DF GA DD/D/ D/D/D/D/ | dA/A/ A/A/A/A/ A2 z2 |] %37
[M:3/32] .D/8 z/8 .F/8 z/8 .E/8 z/8 | .D/8 z/8 .G/8 z/8 .F/8 z/8 | %39
 .f3/16 .g/16 .a3/16 .f/16 .g3/16 .e/16 | .f3/16 .d/16 .e3/16 .c/16 .d3/16 .A/16 | %41
 (!>!a/16g/16f/16g/16 a/8) z/8 .A/8 z/8 | (!>!g/16f/16e/16f/16) g/8d/8f/8d/8 | %43
 .A/8 .d/4 .c/4 d/16c/16 | .B/8 .e/4 d/16c/16 d/16e/16f/16^g/16 | a/8A/8 e/8A/8 ^g/8e/8 | %46
 a/8A/8 e/8A/8 ^g/8e/8 | c/16e/16e/16e/16 c/16e/16e/16e/16 c/16e/16e/16e/16 | %48
 c/16e/16e/16e/16 c/16e/16e/16e/16 c/16e/16e/16e/16 | %49
 A/16A/16A/16A/16 B/16B/16B/16B/16 c/16c/16c/16c/16 | %50
 d/16d/16d/16d/16 e/16e/16e/16e/16 f/16f/16f/16f/16 | %51
 c/16c/16c/16c/16 d/16d/16d/16d/16 e/16e/16e/16e/16 | %52
 f/16f/16f/16f/16 g/16g/16g/16g/16 a/16a/16a/16a/16 | %53
 A/16A/16A/16A/16 G/16G/16G/16G/16 ^G/16G/16G/16G/16 | A/16A/16A/16A/16 G/16G/16G/16G/16 F/8A/8 | %55
 e/16e/16e/16e/16 e/16e/16e/16e/16 e/16e/16e/16e/16 | e/16e/16e/16e/16 e/16e/16e/16e/16 d/4 |]: %57
[M:24/1] z8 | z32 z32 z16 z8 !>!A8 (!>!d8 e8) c8 (!>!d8 e8) c8 (!>!d8 f8) A8 !>!D8 d8 e8 | %59
"^simile" f8 d8 f8 e8 c8 e8 d8 B8 d8 c16 d8 e16 A8 d16 ^G8 c8 A8 E8 B8 E8 F8 | %60
 ^G8 B8 A8 B8 d8 c8 d8 f8 e8 f8 e8 d8 c8 B8 A8 D16 E8 A,8 C8 E8 C8 E8 A8 | %61
 B16 E8 c24 ^G8 E8 G8 A8 E8 A8 B16 E8 c24 G8 E8 G8 A8 E8 A8 | %62
 B24 A24 ^G8 B8 A8 G8 F8 E8 A16 C8 D16 E8 A,24- A,16 :: e8 | %64
 c8 d8 e8 B8 c8 d8 c8 d8 e8 A8 B8 c8 d24 c24 d24 z8 z8 =c8 | %65
 B8 A8 G8 D8 d8 =c8 B8 A8 G8 G,16 F8 G24 F24 G24 z8 z8 A8 | %66
 B8 G8 E8 c24 d8 B8 d8 e24 f8 d8 A8 e8 c8 A8 f8 d8 A8 a8 f8 d8 | %67
 c8 A8 c8 d8 A8 d8 e16 A8 f24 c8 A8 c8 d8 A8 d8 e16 A8 f24 | %68
 ^g8 b8 a8 g8 f8 e8 a24 =g24 f8 e8 d8 e8 d8 c8 d24- d16 :: %69
[M:2/2]!p! (D/>E/)!breath!D D/>E/!breath!D!f! (f/4d/4c/4d/4) (f/4d/4c/4d/4) (f/4d/4c/4d/4) !wedge!f | %70
!p! E/>F/!breath!E E/>F/!breath!E!f! e/4c/4B/4c/4 e/4c/4B/4c/4 e/4c/4B/4c/4 !wedge!e | %71
!p! DA, CA, F/>G/!breath!A E/>F/!breath!G | %72
 !wedge!f/F/F/F/ !wedge!d/D/D/D/ !wedge!e/C/C/C/ !wedge!c/A,/A,/A,/ | d D/E/4F/4 ED CD EC | %74
 DFCD C2 z2 :: c/4A/4^G/4A/4 c/4A/4G/4A/4 c/4A/4G/4A/4 c z!p! ^DED | %76
!f! g/4e/4^d/4e/4 g/4e/4d/4e/4 g/4e/4d/4e/4 g z!p! GFE | DF/f/ EG/g/ FA/a/ FD/d/ | %78
 !wedge!g/E/E/E/ !wedge!c/A,/A,/A,/ !wedge!f/D/D/D/ !wedge!B/G,/G,/G,/ | %79
 e C/D/4E/4 DC F/D/A/D/ B/D/c/D/ | dF GE [FA]2 z2 ::[M:6/4] z2 | z DFAFD dc/B/ A/G/F/E/ Dd | %83
 cAcecA ag/f/ e/d/c/B/ AA, | z FED G2 z CB,A, D2 | z GFdEc dA D2 :: z2 | %87
 z AcAfd eA/B/ c/d/e/f/ ^g^G | FACADA EB/c/ d/c/B/A/ ^GE | z FED ^G2 z AGF B2 | %90
 z ADBE^G AE A,2 z2 | z FDFED G,A,/B,/ =C/D/E/F/ GF | EecA dD Ac/B/ A/B/c/d/ ef | %93
 gGDd c2 z dcB e2 | z dGeAc dA D2 :| %95
V:4
 x8 | x8 | x8 | x8 | x8 | x8 | x8 | x8 | DDDD DDDD | DDDD DD DD | F2 G2 F2 DE | F2 G2 F2 x2 | x8 | %13
 x8 | x8 | x8 | x8 | x8 | x8 | x8 | x8 | x2 !stemless!^g/4 x/4 x/4 x/4 x x4 | %22
 x6 x/4 x/4 x/4 x/4 x/ x/4 x/4 | x8 | x8 | x8 | x8 | x8 | x8 | x8 | x8 | x8 | x8 | x8 | x8 | %35
 x4 z d/d/ d/d/d/d/ | DD/D/ D/D/D/D/ D2 z2 |][M:3/32] x3/4 | x3/4 | x3/4 | x3/4 | x3/4 | x3/4 | %43
 x3/4 | x3/4 | x3/4 | x3/4 | x3/4 | x3/4 | x3/4 | x3/4 | x3/4 | x3/4 | %53
 G,/16G,/16G,/16G,/16 A,/16A,/16A,/16A,/16 B,/16B,/16B,/16B,/16 | %54
 G,/16G,/16G,/16G,/16 A,/16A,/16A,/16A,/16 D/4 | %55
 B/16B/16B/16B/16 c/16c/16c/16c/16 d/16d/16d/16d/16 | d/16d/16d/16d/16 c/16c/16c/16c/16 D/4 |]: %57
[M:24/1] x8 | x192 | x192 | x192 | x192 | x184 :: x8 | x192 | x192 | x192 | x192 | x184 :: %69
[M:2/2] x8 | x8 | x8 | x8 | x8 | x8 :: x8 | x8 | x8 | x8 | x8 | x8 ::[M:6/4] x2 | x12 | x12 | x12 | %85
 x10 :: x2 | x12 | x12 | x12 | x12 | x12 | x12 | x12 | x10 :| %95

